Origami/64x64/apps/lookit.svg

<svg width="64" height="64" version="1" xmlns="http://www.w3.org/2000/svg">
 <path d="M 2.0508,37.39 C 2.0244,37.742 2,38.094 2,38.454 2,46.486 8.7158,53 17,53 l 31.876,0 C 56.124,53 62,47.302 62,40.274 62,39.928 61.978,39.586 61.95,39.246 61.434,45.818 55.784,51 48.876,51 L 17,51 C 9.0418,51 2.5512,44.986 2.0508,37.39 Z" style="opacity:.2"/>
 <path d="M 32,12 C 24.234,12 17.6198,16.6106 14.7734,23.136 7.544,24.178 2,30.154 2,37.454 2,45.488 8.7158,52 17,52 l 31.876,0 C 56.124,52 62,46.302 62,39.272 62,32.74 56.934,27.386 50.398,26.66 48.694,18.3194 41.1,12 32,12 Z" style="fill:#cccccc"/>
 <path d="M 32 12 C 24.234 12 17.619837 16.612119 14.773438 23.136719 C 7.5440375 24.178719 2 30.153125 2 37.453125 C 2 37.611125 2.0152656 37.766125 2.0253906 37.921875 C 2.2888217 30.866791 7.7216393 25.15312 14.773438 24.136719 C 17.619837 17.612119 24.234 13 32 13 C 41.1 13 48.694437 19.319756 50.398438 27.660156 C 56.758891 28.366657 61.712314 33.461244 61.974609 39.753906 C 61.983924 39.594082 62 39.435467 62 39.273438 C 62 32.741437 56.934438 27.386156 50.398438 26.660156 C 48.694437 18.319756 41.1 12 32 12 z" style="fill:#ffffff;opacity:.2"/>
 <path d="m32 18a14 14 0 0 0 -14 14 14 14 0 0 0 14 14 14 14 0 0 0 14 -14 14 14 0 0 0 -14 -14zm0 4a10 10 0 0 1 10 10 10 10 0 0 1 -10 10 10 10 0 0 1 -10 -10 10 10 0 0 1 10 -10z" style="opacity:.5"/>
 <circle cx="32" cy="32" r="6" style="opacity:.5"/>
</svg>

<svg xmlns="http://www.w3.org/2000/svg" width="64" height="64" version="1">
 <path style="opacity:0.2" d="M 2.0508,37.39 C 2.0244,37.742 2,38.094 2,38.454 2,46.486 8.7158,53 17,53 l 31.876,0 C 56.124,53 62,47.302 62,40.274 62,39.928 61.978,39.586 61.95,39.246 61.434,45.818 55.784,51 48.876,51 L 17,51 C 9.0418,51 2.5512,44.986 2.0508,37.39 Z"/>
 <path style="fill:#cccccc" d="M 32,12 C 24.234,12 17.6198,16.6106 14.7734,23.136 7.544,24.178 2,30.154 2,37.454 2,45.488 8.7158,52 17,52 l 31.876,0 C 56.124,52 62,46.302 62,39.272 62,32.74 56.934,27.386 50.398,26.66 48.694,18.3194 41.1,12 32,12 Z"/>
 <path style="opacity:0.2;fill:#ffffff" d="M 32 12 C 24.234 12 17.619837 16.612119 14.773438 23.136719 C 7.5440375 24.178719 2 30.153125 2 37.453125 C 2 37.611125 2.0152656 37.766125 2.0253906 37.921875 C 2.2888217 30.866791 7.7216393 25.15312 14.773438 24.136719 C 17.619837 17.612119 24.234 13 32 13 C 41.1 13 48.694437 19.319756 50.398438 27.660156 C 56.758891 28.366657 61.712314 33.461244 61.974609 39.753906 C 61.983924 39.594082 62 39.435467 62 39.273438 C 62 32.741437 56.934438 27.386156 50.398438 26.660156 C 48.694437 18.319756 41.1 12 32 12 z"/>
 <path style="opacity:0.5" d="M 32,18 A 14,14 0 0 0 18,32 14,14 0 0 0 32,46 14,14 0 0 0 46,32 14,14 0 0 0 32,18 Z m 0,4 A 10,10 0 0 1 42,32 10,10 0 0 1 32,42 10,10 0 0 1 22,32 10,10 0 0 1 32,22 Z"/>
 <circle style="opacity:0.5" cx="32" cy="32" r="6"/>
</svg>
